src/icons/trigger-execution.svg

<svg viewBox="0 0 16 14" fill="none" xmlns="http://www.w3.org/2000/svg">
<path d="M7.53609 0C5.46033 0 3.76686 1.69346 3.76686 3.76923C3.76686 4.89677 4.32417 5.85362 5.11302 6.54554L3.98548 8.63208C3.91311 8.62122 3.84004 8.61564 3.76686 8.61539C2.8811 8.61539 2.15148 9.345 2.15148 10.2308C2.15148 11.1165 2.8811 11.8462 3.76686 11.8462C4.65263 11.8462 5.38225 11.1165 5.38225 10.2308C5.38225 9.80162 5.20563 9.41069 4.92779 9.11992L6.45917 6.27685L6.05533 6.00762C5.32948 5.52515 4.84379 4.70938 4.84379 3.76923C4.84379 2.27608 6.04294 1.07692 7.53609 1.07692C9.02925 1.07692 10.2284 2.27608 10.2284 3.76923C10.2284 4.08477 10.1756 4.38146 10.0771 4.66092L11.0867 5.03138C11.2314 4.6263 11.3053 4.19937 11.3053 3.76923C11.3053 1.69346 9.61186 0 7.53609 0ZM7.53609 2.15385C6.65033 2.15385 5.92071 2.88346 5.92071 3.76923C5.92071 4.655 6.65033 5.38462 7.53609 5.38462C7.61148 5.38462 7.68148 5.37815 7.75471 5.36792L9.23548 7.72369L9.50471 8.16092L9.95917 7.89169C10.3687 7.65686 10.8333 7.53496 11.3053 7.53846C12.7985 7.53846 13.9976 8.73762 13.9976 10.2308C13.9976 11.7239 12.7985 12.9231 11.3053 12.9231C10.9274 12.9251 10.5533 12.8466 10.208 12.6929C9.86276 12.5391 9.55417 12.3136 9.30279 12.0314L8.4951 12.7378C8.84849 13.1339 9.28143 13.451 9.76565 13.6685C10.2499 13.886 10.7745 13.999 11.3053 14C13.3811 14 15.0746 12.3065 15.0746 10.2308C15.0746 8.155 13.3811 6.46154 11.3053 6.46154C10.8089 6.46154 10.3776 6.657 9.94248 6.832L8.71371 4.86285C8.98294 4.57477 9.15148 4.18977 9.15148 3.76923C9.15148 2.88346 8.42186 2.15385 7.53609 2.15385ZM7.53609 3.23077C7.83925 3.23077 8.07456 3.46662 8.07456 3.76923C8.07456 4.07238 7.83871 4.30769 7.53609 4.30769C7.23294 4.30769 6.99763 4.07185 6.99763 3.76923C6.99763 3.46608 7.23348 3.23077 7.53609 3.23077ZM3.1444 6.51215C2.71309 6.58538 2.28179 6.73508 1.88225 6.96662C0.0859415 8.00315 -0.534366 10.3191 0.502172 12.1154C1.53925 13.9117 3.85302 14.532 5.65148 13.4955C6.67994 12.8999 7.2351 11.8628 7.40148 10.7692H9.79117C10.0157 11.3917 10.6091 11.8462 11.3053 11.8462C12.1911 11.8462 12.9207 11.1165 12.9207 10.2308C12.9207 9.345 12.1911 8.61539 11.3053 8.61539C10.6091 8.61539 10.0157 9.06985 9.79063 9.69231H6.45917V10.2308C6.45917 11.1607 5.97994 12.0691 5.11302 12.5698C4.80599 12.7472 4.46698 12.8622 4.11542 12.9083C3.76385 12.9544 3.40666 12.9306 3.0643 12.8384C2.72194 12.7461 2.40115 12.5872 2.12032 12.3707C1.8395 12.1543 1.60415 11.8845 1.42779 11.5769C1.21017 11.2003 1.08694 10.7767 1.06864 10.3421C1.05034 9.90759 1.1375 9.47506 1.32269 9.08152C1.50787 8.68798 1.78557 8.34511 2.13206 8.08222C2.47855 7.81932 2.88353 7.64421 3.3124 7.57185L3.1444 6.51215ZM3.76686 9.69231C4.07002 9.69231 4.30533 9.92815 4.30533 10.2308C4.30533 10.5339 4.06948 10.7692 3.76686 10.7692C3.46371 10.7692 3.2284 10.5334 3.2284 10.2308C3.2284 9.92762 3.46425 9.69231 3.76686 9.69231ZM11.3053 9.69231C11.6085 9.69231 11.8438 9.92815 11.8438 10.2308C11.8438 10.5339 11.6079 10.7692 11.3053 10.7692C11.0022 10.7692 10.7669 10.5334 10.7669 10.2308C10.7669 9.92762 11.0027 9.69231 11.3053 9.69231Z" fill="currentColor"/>
</svg>

<svg viewBox="0 0 16 14" fill="none" xmlns="http://www.w3.org/2000/svg"><path d="M7.536 0a3.777 3.777 0 00-3.77 3.77c0 1.127.558 2.084 1.347 2.776L3.985 8.632a1.508 1.508 0 00-.218-.017c-.886 0-1.616.73-1.616 1.616 0 .886.73 1.615 1.616 1.615.886 0 1.615-.73 1.615-1.615 0-.43-.176-.82-.454-1.111l1.531-2.843-.404-.27a2.684 2.684 0 011.48-4.93c1.494 0 2.693 1.2 2.693 2.692 0 .316-.052.612-.15.892l1.009.37c.144-.405.218-.832.218-1.262A3.777 3.777 0 007.536 0zm0 2.154c-.886 0-1.615.73-1.615 1.615 0 .886.73 1.616 1.615 1.616.075 0 .145-.007.219-.017l1.48 2.356.27.437.454-.27c.41-.234.874-.356 1.346-.353 1.494 0 2.693 1.2 2.693 2.693s-1.2 2.692-2.693 2.692a2.664 2.664 0 01-2.002-.892l-.808.707A3.776 3.776 0 0011.305 14a3.777 3.777 0 003.77-3.77 3.777 3.777 0 00-3.77-3.768c-.496 0-.927.195-1.363.37l-1.228-1.97c.269-.287.437-.672.437-1.093 0-.886-.73-1.615-1.615-1.615zm0 1.077c.303 0 .539.236.539.538a.532.532 0 01-.539.539.532.532 0 01-.538-.539c0-.303.235-.538.538-.538zM3.144 6.512a3.785 3.785 0 00-1.262.455 3.78 3.78 0 00-1.38 5.148 3.78 3.78 0 005.15 1.38c1.028-.595 1.583-1.632 1.75-2.726h2.39a1.62 1.62 0 001.513 1.077c.886 0 1.616-.73 1.616-1.615 0-.886-.73-1.616-1.616-1.616-.696 0-1.29.455-1.514 1.077H6.459v.539a2.695 2.695 0 01-5.031 1.346 2.694 2.694 0 011.884-4.005l-.168-1.06zm.623 3.18c.303 0 .538.236.538.539a.532.532 0 01-.538.538.532.532 0 01-.539-.538c0-.303.236-.539.539-.539zm7.538 0c.303 0 .539.236.539.539a.532.532 0 01-.539.538.532.532 0 01-.538-.538c0-.303.236-.539.538-.539z" fill="currentColor"/></svg>
